fa/svgs/regular/chess-rook.svg

<svg xmlns="http://www.w3.org/2000/svg" viewBox="0 0 384 512"><!--! Font Awesome Free 6.1.1 by @fontawesome - https://fontawesome.com License - https://fontawesome.com/license/free (Icons: CC BY 4.0, Fonts: SIL OFL 1.1, Code: MIT License) Copyright 2022 Fonticons, Inc.--><path d="M360 464H23.1C10.75 464 0 474.7 0 487.1S10.75 512 23.1 512H360c13.3 0 24-10.7 24-24s-10.7-24-24-24zM345.1 32h-308C17 32 0 49 0 70v139.4c0 9.4 4 18.1 11 24.2l37 32.2c0 8.885.05 17.64.05 26.46 0 39.32-1 79.96-11.93 139.8h49c9.83-57.76 10.99-98.76 10.99-146.56 0-14.8-.11-30.4-.11-47.3l-48-41.7V80h64v48h48V80h64v48h48V80h64v116.5l-48 41.7c0 16.77-.112 32.25-.112 47.1 0 47.79 1.164 89.15 10.99 146.7h49c-10.92-59.83-11.93-100.6-11.93-139.9-.048-8.8.052-17.5.052-26.3l37-32.13c7-6.17 11-14.87 11-24.27V70c0-21-17-38-38.9-38zM192 224c-17.6 0-32 14.4-32 32v64h64v-64c0-17.6-14.4-32-32-32z"/></svg>

<svg xmlns="http://www.w3.org/2000/svg" viewBox="0 0 384 512"><!--! Font Awesome Free 6.2.1 by @fontawesome - https://fontawesome.com License - https://fontawesome.com/license/free (Icons: CC BY 4.0, Fonts: SIL OFL 1.1, Code: MIT License) Copyright 2022 Fonticons, Inc. --><path d="M360 464H23.1C10.75 464 0 474.7 0 487.1S10.75 512 23.1 512H360C373.3 512 384 501.3 384 488S373.3 464 360 464zM345.1 32h-308C17 32 0 49 0 70v139.4C0 218.8 4 227.5 11 233.6L48 265.8c0 8.885 .0504 17.64 .0504 26.46c0 39.32-1.001 79.96-11.93 139.8h49C94.95 374.3 96.11 333.3 96.11 285.5C96.11 270.7 96 255.1 96 238.2L48 196.5V80h64V128H160V80h64V128h48V80h64v116.5L288 238.2c0 16.77-.1124 32.25-.1124 47.1c0 47.79 1.164 89.15 10.99 146.7h49c-10.92-59.83-11.93-100.6-11.93-139.9C335.9 283.3 336 274.6 336 265.8l37-32.13C380 227.5 384 218.8 384 209.4V70C384 49 367 32 345.1 32zM192 224C174.4 224 160 238.4 160 256v64h64V256C224 238.4 209.6 224 192 224z"/></svg>
